Newaita/actions/24/draw-polygon.svg

<svg height="24" viewBox="0 0 24 24" width="24" xmlns="http://www.w3.org/2000/svg"><path d="m11.949219 3.171875c-.226563-.011719-.453125.058594-.632813.195313l-7.941406 5.953124c-.328125.25-.472656.675782-.351562 1.074219l2.976562 9.921875c.125.417969.511719.703125.945312.703125h9.921876c.4375 0 .820312-.285156.949218-.703125l2.976563-9.921875c.117187-.398437-.023438-.824219-.355469-1.074219l-7.9375-5.953124c-.160156-.121094-.351562-.1875-.550781-.195313zm-.042969 2.21875 6.796875 5.097656-2.570313 8.558594h-8.453124l-2.566407-8.558594zm0 0" fill="#424242"/></svg>

<svg xmlns="http://www.w3.org/2000/svg" xmlns:xlink="http://www.w3.org/1999/xlink" width="24px" height="24px" viewBox="0 0 24 24" version="1.1">
<g id="surface1">
     <defs>
  <style id="current-color-scheme" type="text/css">
   .ColorScheme-Text { color:#424242; } .ColorScheme-Highlight { color:#eeeeee; }
  </style>
 </defs>
<path style="fill:currentColor" class="ColorScheme-Text" d="M 11.949219 3.171875 C 11.722656 3.160156 11.496094 3.230469 11.316406 3.367188 L 3.375 9.320312 C 3.046875 9.570312 2.902344 9.996094 3.023438 10.394531 L 6 20.316406 C 6.125 20.734375 6.511719 21.019531 6.945312 21.019531 L 16.867188 21.019531 C 17.304688 21.019531 17.6875 20.734375 17.816406 20.316406 L 20.792969 10.394531 C 20.910156 9.996094 20.769531 9.570312 20.4375 9.320312 L 12.5 3.367188 C 12.339844 3.246094 12.148438 3.179688 11.949219 3.171875 Z M 11.90625 5.390625 L 18.703125 10.488281 L 16.132812 19.046875 L 7.679688 19.046875 L 5.113281 10.488281 Z M 11.90625 5.390625 "/>
</g>
</svg>
